svgs/octodroid.svg

<svg xmlns="http://www.w3.org/2000/svg" viewBox="0 0 192 192"><path d="M106.266 59.553a6.11 6.11 0 0 0-3.816 1.371 6.131 6.131 0 0 0-1.623 7.489 6.12 6.12 0 0 0 6.94 3.226 6.124 6.124 0 0 0 4.661-6.077 6.136 6.136 0 0 0-1.85-4.271 6.12 6.12 0 0 0-4.312-1.738Zm-20.323 0a6.116 6.116 0 0 0-4.33 1.758 6.136 6.136 0 0 0-.095 8.651 6.114 6.114 0 0 0 8.636.134 6.138 6.138 0 0 0 1.87-4.289 5.972 5.972 0 0 0-2.964-5.451 5.949 5.949 0 0 0-3.117-.803Z" fill="none" stroke="#000" stroke-width="6" stroke-linecap="round" stroke-linejoin="round"/><path d="M107.654 80.686H84.188a17.126 17.126 0 0 1-11.831-4.896 17.189 17.189 0 0 1-5.145-11.741 13.58 13.58 0 0 1 3.967-9.393 13.535 13.535 0 0 1 9.377-3.973c3.632 0 11.59 1.43 15.181 1.43 3.592 0 11.549-1.43 15.181-1.43a13.582 13.582 0 0 1 9.393 3.97 13.628 13.628 0 0 1 3.993 9.396c.052 2.94-.689 5.84-2.143 8.393a16.345 16.345 0 0 1-6.123 6.118 16.305 16.305 0 0 1-8.384 2.126Z" fill="none" stroke="#000" stroke-width="6" stroke-linecap="round" stroke-linejoin="round"/><path d="M61.417 62.782a62.833 62.833 0 0 0 11.222 35.645 1.755 1.755 0 0 1 0 1.798 6.248 6.248 0 0 1-4.366 2.167 21.195 21.195 0 0 1-11.549-1.799 59.133 59.133 0 0 0-23.833-5.886c-6.162 0-16.323 3.27-16.323 9.769a12.277 12.277 0 0 0 1.469 7.235c9.019 9.77 17.344 10.874 28.158 9.402a65.762 65.762 0 0 0 30.362-11.2 4.533 4.533 0 0 1 3.265-1.431c.326 0 .326.327.326.695a10.663 10.663 0 0 1-3.224 5.069 88.447 88.447 0 0 1-19.874 14.838 30.564 30.564 0 0 0-15.548 16.637 13.462 13.462 0 0 0 3.265 14.838 12.223 12.223 0 0 0 14.079 3.27 37.738 37.738 0 0 0 13.255-8.876 37.829 37.829 0 0 0 8.415-13.565 73.698 73.698 0 0 0 5.427-21.706c.367-1.798.735-4.7 1.102-6.499.367-.736.694-1.839 1.796-1.472a3.32 3.32 0 0 1 1.795 2.903c.498 4.601.25 9.253-.734 13.775a175.968 175.968 0 0 0-5.02 24.24 13.677 13.677 0 0 0 1.36 9.613 13.617 13.617 0 0 0 17.086 6.043 13.268 13.268 0 0 0 7.66-6.408 13.304 13.304 0 0 0 1.032-9.943 79.808 79.808 0 0 0-5.06-15.574 40.44 40.44 0 0 1-3.632-17.127c0-2.167-.367-5.069 2.163-5.396 2.53-.327 3.632 2.494 4.326 4.333 2.203 4.701 3.632 9.77 5.427 14.838a36.816 36.816 0 0 0 7.847 14.117 36.737 36.737 0 0 0 13.129 9.387c10.814 4.333 19.507.368 22.404-9.769a12.284 12.284 0 0 0-.15-8.812 12.257 12.257 0 0 0-6.012-6.435 61.577 61.577 0 0 0-11.182-4.333 47.048 47.048 0 0 1-20.404-11.568c-1.469-1.472-3.265-3.27-2.163-5.069 1.102-1.799 3.591-.736 5.428-.368a162.545 162.545 0 0 0 27.097 7.603c8.651 1.063 16.976 1.063 22.731-6.867a7.323 7.323 0 0 0 1.469-5.437 8.683 8.683 0 0 0-1.796-6.336c-6.529-9.769-15.916-8.665-25.302-6.499-7.59 1.431-15.181 4.088-22.771 5.805a26.902 26.902 0 0 1-5.428 0 60.034 60.034 0 0 0 10.855-31.843v-3.638a34.79 34.79 0 0 0-10.159-24.569A34.674 34.674 0 0 0 96.309 28.2a34.67 34.67 0 0 0-24.528 10.177 34.787 34.787 0 0 0-10.16 24.569Zm55.623-27.551 12.528-12.549M75.17 35.231 62.641 22.682" fill="none" stroke="#000" stroke-width="6" stroke-linecap="round" stroke-linejoin="round"/></svg>

<svg
    xmlns="http://www.w3.org/2000/svg"
    viewBox="0 0 192 192"
    id="vector">
    <path
        id="path"
        d="M 106.266 59.553 C 104.876 59.562 103.529 60.046 102.45 60.924 C 101.37 61.802 100.621 63.022 100.326 64.383 C 100.031 65.744 100.208 67.166 100.827 68.413 C 101.445 69.66 102.47 70.66 103.732 71.246 C 104.993 71.832 106.417 71.971 107.767 71.639 C 109.117 71.307 110.315 70.524 111.162 69.42 C 112.009 68.315 112.456 66.954 112.428 65.562 C 112.396 63.95 111.731 62.415 110.578 61.291 C 109.425 60.167 107.875 59.542 106.266 59.553 Z M 85.943 59.553 C 84.325 59.542 82.767 60.175 81.613 61.311 C 80.459 62.447 79.8 63.996 79.783 65.617 C 79.765 67.238 80.389 68.801 81.518 69.962 C 82.647 71.123 84.191 71.79 85.809 71.815 C 87.427 71.84 88.99 71.222 90.154 70.096 C 91.319 68.971 91.991 67.427 92.024 65.807 C 92.076 64.714 91.828 63.626 91.305 62.665 C 90.782 61.704 90.005 60.905 89.06 60.356 C 88.114 59.807 87.036 59.529 85.943 59.553 Z"
        fill="none"
        stroke="#000000"
        stroke-width="6"
        stroke-linecap="round"
        stroke-linejoin="round"/>
    <path
        id="path_1"
        d="M 107.654 80.686 L 84.188 80.686 C 79.763 80.646 75.52 78.891 72.357 75.79 C 69.194 72.69 67.349 68.48 67.212 64.049 C 67.264 60.522 68.688 57.15 71.179 54.656 C 73.669 52.161 77.035 50.735 80.556 50.683 C 84.188 50.683 92.146 52.113 95.737 52.113 C 99.329 52.113 107.286 50.683 110.918 50.683 C 114.444 50.735 117.814 52.16 120.311 54.653 C 122.808 57.147 124.241 60.518 124.304 64.049 C 124.356 66.989 123.615 69.889 122.161 72.442 C 120.706 74.995 118.591 77.109 116.038 78.56 C 113.485 80.011 110.588 80.745 107.654 80.686 Z"
        fill="none"
        stroke="#000000"
        stroke-width="6"
        stroke-linecap="round"
        stroke-linejoin="round"/>
    <path
        id="path_2"
        d="M 61.417 62.782 C 61.456 75.528 65.372 87.964 72.639 98.427 C 72.801 98.699 72.886 99.009 72.886 99.326 C 72.886 99.642 72.801 99.953 72.639 100.225 C 72.094 100.861 71.426 101.38 70.676 101.753 C 69.926 102.125 69.108 102.342 68.273 102.392 C 64.331 102.887 60.329 102.263 56.724 100.593 C 49.278 96.985 41.158 94.98 32.891 94.707 C 26.729 94.707 16.568 97.977 16.568 104.476 C 16.304 106.982 16.817 109.509 18.037 111.711 C 27.056 121.481 35.381 122.585 46.195 121.113 C 57.088 119.968 67.525 116.118 76.557 109.913 C 76.976 109.466 77.482 109.108 78.043 108.862 C 78.604 108.617 79.209 108.487 79.822 108.482 C 80.148 108.482 80.148 108.809 80.148 109.177 C 79.581 111.141 78.462 112.901 76.924 114.246 C 71.028 120.102 64.337 125.097 57.05 129.084 C 49.923 132.414 44.35 138.378 41.502 145.721 C 40.489 148.235 40.259 150.998 40.842 153.646 C 41.424 156.294 42.793 158.704 44.767 160.559 C 46.463 162.53 48.742 163.909 51.273 164.497 C 53.804 165.085 56.457 164.851 58.846 163.829 C 63.845 161.85 68.364 158.823 72.101 154.953 C 75.838 151.083 78.707 146.458 80.516 141.388 C 83.419 134.472 85.249 127.152 85.943 119.682 C 86.31 117.884 86.678 114.982 87.045 113.183 C 87.412 112.447 87.739 111.344 88.841 111.711 C 89.375 111.986 89.824 112.402 90.141 112.913 C 90.457 113.424 90.628 114.012 90.636 114.614 C 91.134 119.215 90.886 123.867 89.902 128.389 C 87.662 136.341 85.984 144.441 84.882 152.629 C 84.144 155.891 84.629 159.314 86.242 162.242 C 87.856 165.17 90.489 167.405 93.638 168.519 C 96.786 169.632 100.236 169.549 103.328 168.285 C 106.616 167.23 109.366 164.93 110.988 161.877 C 112.611 158.825 112.982 155.255 112.02 151.934 C 110.872 146.583 109.176 141.364 106.96 136.36 C 104.513 130.986 103.274 125.139 103.328 119.233 C 103.328 117.066 102.961 114.164 105.491 113.837 C 108.021 113.51 109.123 116.331 109.817 118.17 C 112.02 122.871 113.449 127.94 115.244 133.008 C 116.783 138.238 119.464 143.06 123.091 147.125 C 126.719 151.19 131.204 154.396 136.22 156.512 C 147.034 160.845 155.727 156.88 158.624 146.743 C 159.666 143.889 159.612 140.747 158.474 137.931 C 157.336 135.115 155.192 132.82 152.462 131.496 C 148.884 129.691 145.139 128.24 141.28 127.163 C 133.614 125.093 126.594 121.113 120.876 115.595 C 119.407 114.123 117.611 112.325 118.713 110.526 C 119.815 108.727 122.304 109.79 124.141 110.158 C 132.937 113.471 142.003 116.015 151.238 117.761 C 159.889 118.824 168.214 118.824 173.969 110.894 C 174.56 110.13 174.994 109.256 175.246 108.323 C 175.498 107.39 175.563 106.416 175.438 105.457 C 175.695 103.192 175.049 100.914 173.642 99.121 C 167.113 89.352 157.726 90.456 148.34 92.622 C 140.75 94.053 133.159 96.71 125.569 98.427 C 123.764 98.61 121.946 98.61 120.141 98.427 C 126.719 89.068 130.486 78.017 130.996 66.584 L 130.996 62.946 C 130.996 53.734 127.339 44.891 120.837 38.377 C 114.334 31.864 105.505 28.2 96.309 28.2 C 87.112 28.2 78.283 31.864 71.781 38.377 C 65.278 44.891 61.621 53.734 61.621 62.946 Z M 117.04 35.231 L 129.568 22.682 M 75.17 35.231 L 62.641 22.682"
        fill="none"
        stroke="#000000"
        stroke-width="6"
        stroke-linecap="round"
        stroke-linejoin="round"/>
</svg>
